!!!!SEGMENT: pl-wtm--r-2588_hertz-michal--on-rzucil-ojcow-zagrody.krn
!!!cenid: 18xx:3127
!!!COM: Hertz, Michał
!!!COM-rismid: pe41023359
!!!CDT: 1844/09/28-~1918
!!!CNT: Polish
!!!OTL: On rzucił ojców zagrody
!!!PDT:
!!!AGN:
!!!SMS-siglum: PL-Wtm
!!!SMS-shelfmark: R 2588
!!!SMS-shelfwork: W
!!!SMS-variant:
!!!SMS-altvar:
!!!NIFC-rismid: 1001082933
!!!URL-scan: http://repozytorium.nifc.pl/skany/pl-wtm-nut--r2588
!!!ONB-nifc:
**kern	**kern	**dynam	**kern	**text	**text	**text	**text	**text	**dynam
*part2	*part2	*part2	*part1	*part1	*part1	*part1	*part1	*part1	*part1
*staff3	*staff2	*	*staff1	*staff1	*staff1	*staff1	*staff1	*staff1	*
*I"[Piano]	*	*	*I"[Voice]	*	*	*	*	*	*
*clefF4	*clefG2	*	*clefG2	*	*	*	*	*	*
*k[b-]	*k[b-]	*	*k[b-]	*	*	*	*	*	*
*d:	*d:	*	*d:	*	*	*	*	*	*
*M4/4	*M4/4	*	*M4/4	*	*	*	*	*	*
*met(c)	*met(c)	*	*met(c)	*	*	*	*	*	*
!	!	!	!LO:TX:b:i:t=Bardzo wolno.	!	!	!	!	!	!
8.r	8.r	p	4r	.	.	.	.	.	.
16D 16GG\	16d 16B- 16G/	.	.	.	.	.	.	.	.
=1!|:	=1!|:	=1!|:	=1!|:	=1!|:	=1!|:	=1!|:	=1!|:	=1!|:	=1!|:
*2\right	*2\right	*	*2\right	*	*	*	*	*	*
!	!	!LO:HP:b=2	!	!	!	!	!	!	!
(>4.D 4.FF\	(>2.a (<2.A/	<	1r	.	.	.	.	.	.
16C#XLL 16EE\	.	.	.	.	.	.	.	.	.
16DJJ 16FF\	.	.	.	.	.	.	.	.	.
4F 4AA\	.	.	.	.	.	.	.	.	.
8.EL 8.GG\)	8.aL 8.A/))	.	.	.	.	.	.	.	.
16C#Jk 16EE\	16AJk 16G/	[[	.	.	.	.	.	.	.
=2	=2	=2	=2	=2	=2	=2	=2	=2	=2
!	!	!LO:HP:b=2	!	!	!	!	!	!	!
(>2C#X (<2AA/	(>2e (<2A (<2G/	>	2r	.	.	.	.	.	.
!	!	!	!	!	!	!	!	!	!LO:DY:b:rj
4D 4DD/))	4d) 4A) 4F/)	.	4r	.	.	.	.	.	p
8.r	8.r	]p	8.r	.	.	.	.	.	.
16D 16GG\	16d 16B- 16G/	.	16d/	On	I	I	I	A	.
=3	=3	=3	=3	=3	=3	=3	=3	=3	=3
*^	*^	*	*	*	*	*	*	*	*
!	!	!	!LO:N:vis=1	!	!	!	!	!	!	!	!
[>1D	(<4..DD\	(>2f/	(<2A\	]	4.f/	rzu-	pła-	bu-	prze-	gdy	.
.	.	.	.	.	16f\	.	.	rze-	.	.	.
.	16FF\	.	.	.	16f/	-cił	-kał	-mu	-był	już	.
!	!	!	!LO:N:vis=1	!	!	!	!	!	!	!	!
.	2GG\)	4.e/	2B-\	.	4.e/	oj-	łza-	prze-	lą-	śmier-	.
.	.	16d/LL	.	.	16d/	-ców	-mi	-szły	-dy	-ci	.
.	.	16e/JJ	.	.	16e/	za-	tę-	nad	i	go-	.
=4	=4	=4	=4	=4	=4	=4	=4	=4	=4	=4	=4
!	!	!	!	!LO:HP:b=2	!	!	!	!	!	!	!
2.D/_>	4.DD\	2f/	(<(<2A\)	<	2f/	-gro-	-skno-	gło-	mo-	-dzi-	.
.	16EE\LL	.	.	.	.	.	.	.	.	.	.
.	16FF\JJ	.	.	.	.	.	.	.	.	.	.
.	4GG\	4..d/)	4B-\)	.	4d/	-dy	-ty	-wą	-rza	-na	.
8.D/L]	8.FF\L	.	8.A\L)	[	8.r	.	.	.	.	.	.
16BB-/Jk	16BB-\Jk	16f 16d-X/	16B-\Jk	.	16f/	by	szu	i	i	.	.
!!LO:LB:g=original
=5	=5	=5	=5	=5	=5	=5	=5	=5	=5	=5	=5
[>1F	(<4..FF\	(>2a/	(<2c\	.	4..a/	.	.	.	.	.	.
.	16AA\	.	.	.	16a/	.	.	.	.	.	.
.	2BB-\)	4.g/	2d-X\)	.	4.g/	.	.	.	.	.	.
.	.	16f/LL	.	.	16f/	.	.	.	.	.	.
.	.	16g/JJ	.	.	16g/	.	.	.	.	.	.
=6	=6	=6	=6	=6	=6	=6	=6	=6	=6	=6	=6
!	!	!	!	!LO:HP:b=2	!	!	!	!	!	!	!
2.F/_>	(<4.FF\	2a/	(<2c\	<	2a/	.	.	.	.	.	.
.	16GG\LL	.	.	.	.	.	.	.	.	.	.
.	16AA\JJ	.	.	.	.	.	.	.	.	.	.
.	4BB-\	4..f/)	4d-X\	.	4f/	.	.	.	.	.	.
8.F/L]	8.AA\L)	.	8.c\L)	[	8.r	.	.	.	.	.	.
16D/Jk	16D\Jk	(>16a 16f/	16dn\Jk	.	16a/	.	.	.	.	.	.
=7	=7	=7	=7	=7	=7	=7	=7	=7	=7	=7	=7
[>1A	(<4..AA\	2cc/	(<2e\	.	4..cc\	.	.	.	.	.	.
.	16C\	.	.	.	16cc\	.	.	.	.	.	.
!	!LO:N:vis=2	!	!	!LO:HP:b=2	!	!	!	!	!	!	!
.	4.D\	4.bn/	2f\)	<	4.bn\	.	.	.	.	.	.
.	16C\LL	16cc/LL	.	.	16cc\	.	.	.	.	.	.
.	16BBn\JJ	16dd/JJ	.	.	16dd\	.	.	.	.	.	.
*	*	*v	*v	*	*	*	*	*	*	*	*
=8	=8	=8	=8	=8	=8	=8	=8	=8	=8	=8
2.A/_>	2C\	2ee 2e\	.	2ee\	.	.	.	.	.	.
.	4D\)	4..dd 4..f\)	[	4dd\	.	.	.	.	.	.
8.A/L]	8.BBn\L	.	.	8.r	.	.	.	.	.	.
16D/Jk	16D\Jk	16bn 16f 16d\	.	16bn\	.	.	.	.	.	.
*v	*v	*	*	*	*	*	*	*	*	*
!!LO:LB:g=original
=9	=9	=9	=9	=9	=9	=9	=9	=9	=9
[>2E\	(>4.a 4.e 4.c/	.	4.a/	.	.	.	.	.	.
.	16g#XLL 16d 16Bn/	.	16g#X/	.	.	.	.	.	.
.	16aJJ 16e 16c/	.	16a/	.	.	.	.	.	.
8.E\L]	4cc 4a 4e\	.	4cc\	.	.	.	.	.	.
16EE\K	.	.	.	.	.	.	.	.	.
8.GG#X\	8.bnL 8.e 8.d/)	.	8.bn\	.	.	.	.	.	.
16BBn\Jk	16eJk 16d 16G 16F#X/	.	16e/	.	.	.	.	.	.
=10	=10	=10	=10	=10	=10	=10	=10	=10	=10
(>2G#X (<2E\	(>2bn (>2e (<2d\	.	2bn\	.	.	.	.	.	.
4A 4AA\))	4a) 4e) 4c/)	.	4a/	.	.	.	.	.	.
*	*	*	*^	*	*	*	*	*	*
!	!	!	!	!LO:N:vis=4	!	!	!	!	!	!
4r	8.r	.	8.re	8.raa	.	.	.	.	.	.
.	(>16a/	.	16a\	16ryy	.	.	.	.	.	.
*	*	*	*v	*v	*	*	*	*	*	*
=11	=11	=11	=11	=11	=11	=11	=11	=11	=11
*	*^	*	*	*	*	*	*	*	*
4r	[2.b-/	4r	.	4.b-X\	.	.	.	.	.	.
8.r	.	8.r	.	.	.	.	.	.	.	.
.	.	.	.	16b-\	.	.	.	.	.	.
!	!	!	!	!LO:N:vis=4	!	!	!	!	!	!
16F\	.	16a 16d\	.	16b-\	.	.	.	.	.	.
2E\	.	4g 4d\	.	4.b-\	.	.	.	.	.	.
.	8b-/L]	4c#X\	.	.	.	.	.	.	.	.
.	16a/L	.	.	16a/	.	.	.	.	.	.
.	16g/JJ	.	.	16g/	.	.	.	.	.	.
=12	=12	=12	=12	=12	=12	=12	=12	=12	=12	=12
*	*	*^	*	*	*	*	*	*	*	*
(<4.G\	(>2b-/)	(>4f\	(<2d\	.	2b-\	.	.	.	.	.	.
.	.	8e\L)	.	.	.	.	.	.	.	.	.
16F\LL	.	(>16f\L	.	.	.	.	.	.	.	.	.
16E\JJ)	.	16g\JJ)	.	.	.	.	.	.	.	.	.
(>4E\	4..a/)	(<4g\	4c\	.	4a/	.	.	.	.	.	.
8D\)	.	8f\) 8d\)	8ryy	.	8.r	.	.	.	.	.	.
*	*	*v	*v	*	*	*	*	*	*	*	*
8r	.	8r	.	.	.	.	.	.	.	.
.	16f/	.	.	16f/	.	.	.	.	.	.
!!LO:LB:g=original
=13	=13	=13	=13	=13	=13	=13	=13	=13	=13	=13
4r	(>2g/	4r	.	4.g/	.	.	.	.	.	.
8.r	.	8.r	.	.	.	.	.	.	.	.
.	.	.	.	16g\	.	.	.	.	.	.
*	*	*^	*	*	*	*	*	*	*	*
16D\	.	16f\ 16B-\	16ryy	.	16g/	.	.	.	.	.	.
2C#X/	4.g/	4.e\ 4B-\	4ryy	.	4.g/	.	.	.	.	.	.
.	.	.	4A\	.	.	.	.	.	.	.	.
.	16f/LL	16ryy@	.	.	16f/	.	.	.	.	.	.
.	16e/JJ)	16ryy@	.	.	16e/	.	.	.	.	.	.
=14	=14	=14	=14	=14	=14	=14	=14	=14	=14	=14	=14
(<4.E\	(2g/	4d\	2B-\	.	2g/	.	.	.	.	.	.
.	.	8c#X/L	.	.	.	.	.	.	.	.	.
16D\LL	.	16d/L	.	.	.	.	.	.	.	.	.
16C#X\JJ)	.	16e/JJ	.	.	.	.	.	.	.	.	.
(<4C#\	4..f/)	4e\	4A/	.	4f/	.	.	.	.	.	.
8.D\L)	.	8.d\ 8.A\L	8.ryy	.	8.r	.	.	.	.	.	.
16FJk 16GG\	16d/	16B-\J	16ryy	.	16d/	.	.	.	.	.	.
*	*v	*v	*v	*	*	*	*	*	*	*	*
=15	=15	=15	=15	=15	=15	=15	=15	=15	=15
4.F 4.FF\	4.d 4.A/	.	4.d/	.	.	.	.	.	.
!LO:N:vis=16	!LO:N:vis=16	!	!LO:N:vis=16	!	!	!	!	!	!
8E 8EE\	8e 8d 8G/	.	8e/	.	.	.	.	.	.
4..D 4..DD\	4.f 4.d 4.A/	.	4.f/	.	.	.	.	.	.
.	16gLL 16d 16B-/	.	16g/	.	.	.	.	.	.
16C 16CC/	16aJJ 16f 16d/	.	16a/	.	.	.	.	.	.
=16	=16	=16	=16	=16	=16	=16	=16	=16	=16
*	*	*	*2\right	*	*	*	*	*	*
(>2BB- (<2BBB-/	(>2dd 2f (<[2d/	.	2dd\	.	.	.	.	.	.
4F 4FF\))	4a 4d/]))	.	4a/	.	.	.	.	.	.
8.r	8.r	.	8.r	.	.	.	.	.	.
16D 16DD\	16f 16d 16A/	.	16f/	.	.	.	.	.	.
!!LO:PB:g=original
=17	=17	=17	=17	=17	=17	=17	=17	=17	=17
*	*^	*	*	*	*	*	*	*	*
(>4.G 4.GG\	(>4.e/	1d 1B-	.	(>4.e/	.	.	.	.	.	.
16ALL 16AA\	16f/LL	.	.	16f/)	.	.	.	.	.	.
16GJJ 16GG\)	16e/JJ)	.	.	16e/	.	.	.	.	.	.
(>4.E 4.EE\	(>4.g/	.	.	4.g/	.	.	.	.	.	.
16FLL 16FF\	16f/LL	.	.	16f/	.	.	.	.	.	.
16GJJ 16GG\)	16e/JJ)	.	.	16e/	.	.	.	.	.	.
=18	=18	=18	=18	=18	=18	=18	=18	=18	=18	=18
*	*	*^	*	*	*	*	*	*	*	*
(<4.F 4.FF\	(>2a/	(<4.d/	(<2A/	.	2a/	.	.	.	.	.	.
16ELL 16EE\	.	16c#X/LL	.	.	.	.	.	.	.	.	.
16FJJ 16FF\	.	16d/JJ)	.	.	.	.	.	.	.	.	.
!	!	!	!LO:N:xstem	!	!	!	!	!	!	!	!
4D 4DD\)	4f/)	4ryy@	4A/)	.	4f/	.	.	.	.	.	.
*	*v	*v	*v	*	*	*	*	*	*	*	*
8.r	8.r	.	8.r	.	.	.	.	.	.
*	*^	*	*	*	*	*	*	*	*
*	*	*^	*	*	*	*	*	*	*	*
16G 16GG\	16d/ 16B-/	16ryy@	16ryy	.	16d/	.	.	.	.	.	.
*	*v	*v	*v	*	*	*	*	*	*	*	*
=19	=19	=19	=19	=19	=19	=19	=19	=19	=19
4..F 4..FF\	4..d 4..A/	.	4..d/	.	.	.	.	.	.
16E 16EE\	16e 16d 16G/	.	16e/	.	.	.	.	.	.
4..D 4..DD\	(>4f (>4d (<4A/	.	[<4f/	.	.	.	.	.	.
.	16fLL) 16d) 16A/)	.	(<16f/LL]	.	.	.	.	.	.
.	16g 16d 16B-/	.	16g/	.	.	.	.	.	.
.	16a 16f 16d/	.	16a/JJ)	.	.	.	.	.	.
16C 16CC/	16ddJJ 16a 16f/	.	16dd\	.	.	.	.	.	.
!!LO:LB:g=original
=20	=20	=20	=20	=20	=20	=20	=20	=20	=20
*	*^	*	*	*	*	*	*	*	*
(<[>4BB- [<4BBB-/	(>4.ff 4.dd/	2f\	.	(>4.ff\	dy-	.	.	.	.	.
16BB-]LL 16BBB-/]	.	.	.	.	.	.	.	.	.	.
16AA 16AAA/	.	.	.	.	.	.	.	.	.	.
16GG 16GGG/	16ee/LL	.	.	16ee\LL	.	.	.	.	.	.
16FFJJ 16FFF/)	16dd/JJ	.	.	16dd\JJ	.	.	.	.	.	.
(>4F (<4FF\	4a/	2d\	.	4a/)	.	.	.	.	.	.
8.B-L 8.BB-\))	8g/L	.	.	8g/	-ny,	.	.	.	.	.
.	16rA	.	.	16r	.	.	.	.	.	.
16AJk 16AA\	16f/Jk)	.	.	16f/	garść	.	.	.	.	.
=21	=21	=21	=21	=21	=21	=21	=21	=21	=21	=21
(>4.G 4.GG\	(>4.e/	1d 1B-	.	(>4.e/	czar-	.	.	.	.	.
16ALL 16AA\	16f/LL	.	.	16f/)	.	.	.	.	.	.
16GJJ 16GG\)	16e/JJ	.	.	16e/	-nej	.	.	.	.	.
(>4.E 4.EE\	[>2g/)	.	.	[>2g/	zie-	.	.	.	.	.
16FLL 16FF\	.	.	.	.	.	.	.	.	.	.
16EJJ 16EE\)	.	.	.	.	.	.	.	.	.	.
=22	=22	=22	=22	=22	=22	=22	=22	=22	=22	=22
(>2.A (<2.AA\	(>2g/]	4.c#X\	.	(>2g/]	.	.	.	.	.	.
.	.	16d\LL	.	.	.	.	.	.	.	.
.	.	16c#\JJ	.	.	.	.	.	.	.	.
.	4f/	4..c#\	.	4f/)	.	.	.	.	.	.
8.AL 8.AA\))	8.e/L	.	.	8e/	-mi	.	.	.	.	.
.	.	.	.	16r	.	.	.	.	.	.
16AAJk 16AAA\	16f/Jk)	16c# 16A\	.	16a/	oj-	.	.	.	.	.
*	*v	*v	*	*	*	*	*	*	*	*
!!LO:LB:g=original
=23	=23	=23	=23	=23	=23	=23	=23	=23	=23
2.D 2.DD\	(>2f (<2d (<2A/	.	2a/	-czy-	.	.	.	.	.
.	4d) 4A) 4F/)	.	4d/	-stej	.	.	.	.	.
8.r	8.r	.	4r	.	.	.	.	.	.
!	!	!LO:DY:rj	!	!	!	!	!	!	!
16D 16GG\	16d 16B- 16G/	f	.	.	.	.	.	.	.
=24:|!	=24:|!	=24:|!	=24:|!	=24:|!	=24:|!	=24:|!	=24:|!	=24:|!	=24:|!
!LO:TX:a:t=P:problem:fermata zapisana ołówkiem	!LO:TX:a:t=P:problem:fermata zapisana ołówkiem	!	!LO:TX:a:t=P:problem:fermata zapisana ołówkiem	!	!	!	!	!	!
1A@ 1D@ 1DD;<@	1d@ 1A;>@	.	1r;>@	.	.	.	.	.	.
==	==	==	==	==	==	==	==	==	==
*-	*-	*-	*-	*-	*-	*-	*-	*-	*-
!!!system-decoration: [(s1)]{(s2,s3)}
!!!RDF**kern: @ = marked note, color=grey
!!!RDF**kern: > = above
!!!RDF**kern: < = below
!!!ENC:Berenika Jozajtis
!!!END:2021-11-04
!!!EED: Antoni Szymański
!!!EST: 2021-11-05
